X:1
T:Witness, ye heavens - Mundy
T:#
%%score [ 1 2 3 4 ]
L:1/8
Q:1/4=108
M:4/2
K:F
V:1 treble nm="Soprano" snm="S"
V:2 treble nm="Alto" snm="A"
V:3 treble-8 nm="Tenor" snm="T"
V:4 bass nm="Bass" snm="B"
V:1
"^Witness, ye heavens""^John Mundy\n(c. 1555-1630)" z16 | z4 z4 z4 z4 | c4 d2 c2 f4 z2 d2 | %3
w: ||Wit- ness, ye heavens, ye|
[M:4/2] g4 z2 c2 d3 e f2 e2 | d4 z2 d2 e3 f g2 f2 | e2 d4 ^c2 d8 | z2 g2 f2 e2 d6 c2 | %7
w: heavens, the pa- lace of the|gods, the pa- lace of the|gods, of the gods;|Wit- ness, ye gods, which|
 d2 e2 f8 e4 | f4 z2 c2 B2 A2 G4 | F4 A4 A2 c4 =B2 | c8 z4 f4- | f2 c2 _e4 d4 d4 | c2 B2 A2 G2 A8 | %13
w: hold your seats there-|in; Wit- ness, hell fur-|ies, with re- venge- ful|rods; Wit\-|* ness, fond Love, and|all that love can win.|
 z2 d2 d2 e2 f8 | z2 e2 e2 f2 g4 z2 G2 | d4 e4 f6 f2 | e8 z4 c4 | f4 e4 d4 z2 c2 | %18
w: Wit- ness the air,|wit- ness the air, fire,|wa- ter, earth and|all, How|I have liv'd, how|
 _e4 d4 c4 z2 c2 | d2 c2 A2 =B2 c4 c4 | _e4 d8 c4- | c2 (B2 G4) A16 |] %22
w: I have liv'd a|vas- sal at thy call, a|vas- sal at|* thy * call.|
V:2
 z16 | F4 (G2 F2 B8) | A4 (B2 G2) F2 C2 D2 F2 |[M:4/2] E3 F G2 A2 B3 c d2 c2 | (=B2 c4) B2 c6 A2 | %5
w: |Wit- ness, * *|ye hea\- * vens, the pa- lace|of the gods, the pa- lace of the|gods, * the gods, the|
 c2 A3 G E2 F8 | E4 A2 c2 B6 A2 | F2 G2 A4 B4 G4 | A4 F4 F2 F4 E2 | D4 F6 C2 D4 | E4 F6 E2 D4 | %11
w: pa- lace of the gods;|Wit- ness, ye gods, which|hold your seats there- in;|Wit- ness, hell fur- ies,|with re- venge- ful|rods; Wit- ness, fond|
 G6 A2 B4 B4 | A2 G2 G8 ^F4 | G2 (A2 B4) A4 c4 | c6 (A2 =B4) _B4- | (B2 A2) G4 F4 D4 | G8 C4 F4- | %17
w: Love, fond Love, and|all that love can|win. Wit\- * ness the|air, fire, * wa\-|* * ter, earth and|all, How I|
 F2 F2 G2 A2 B4 A4 | G4 F4 E4 F4 | F4 z2 F2 A2 G2 E2 F2 | G8 F4 F4- | F4 E4 F16 |] %22
w: * have liv'd a vas- sal|at thy call, thy|call, how I have liv'd a|vas- sal at|* thy call.|
V:3
 c4 (d2 c2) f4 (e2 f2) | d6 c2 g2 f4 e2 | f6 e2 d2 (A2 B2 A2) |[M:4/2][K:treble-8] c8 f4 d2 g2 | %4
w: Wit- ness, * ye hea\- *|vens, the pa- lace, the|pa- lace of the * *|gods, wit- ness, ye|
 g6 G2 c3 d e2 f2 | g2 f2 e4 d4 A2 B2 | c6 g2 g4 (f2 e2) | d4 c4 B8 | c6 A2 d2 c2 c4 | %9
w: heavens, the pa- lace of the|gods, the gods; Wit- ness, ye|gods, which hold your *|seats there- in;|Wit- ness, hell fur- ies,|
 A4 d4 c2 (A2 F4) | G4 (A6 G2) F4 | c8 f4 B4 | c4 _e4 d6 c2 | B8 c2 A2 a4 | a8 g4 d4- | %15
w: with re- venge- ful *|rods; Wit\- * ness,|fond Love, and|all that love can|win. Wit- ness the|air, fire, wa\-|
 d2 A2 c6 (=BA B4) | c6 B2 A8 | (d4 e4) f6 F2 | B8 G4 A4 | B4 f4 e4 c4 | z2 G2 B2 A2 F2 (G2 A4) | %21
w: * ter, earth and * *|all, How I|have * lived a|vas- sal at|thy call, how I|have liv'd a vas- sal *|
 G4 c4 c16 |] %22
w: at thy call.|
V:4
 z4 z4 F,4 G,2 F,2 | B,6 A,2 G,2 (B,2 G,4) | F,4 (B,,2 C,2) D,2 (F,2 D,4) | %3
w: Wit- ness, ye|heavens, the pa- lace *|of the * gods, the *|
[M:4/2] C,3 D, E,2 F,2 B,,6 C,2 | G,8 z4 z2 D,2 | E,3 F, G,2 A,2 D,8 | C,4 F,2 (C,2 G,4) B,4- | %7
w: pa- lace of the gods, the|gods, the|pa- lace of the gods;|which hold your * seats|
 B,4 A,4 G,8 | F,4 F,4 B,,2 F,2 C,4 | D,6 E,2 F,4 D,4 | C,4 F,6 (C,2 D,4) | C,8 B,,8 | z4 z4 D,8 | %13
w: * there- in;|Wit- ness, hell fur- ies,|with re- venge- ful|rods; Wit- ness, *|fond Love,|Wit-|
 G,8 (F,6 G,2) | (A,3 B, C2 D2) G,4 G,4- | G,2 F,2 E,4 D,8 | C,4 C,4 F,6 E,2 | D,4 C,4 B,,4 F,4 | %18
w: ness the *|air, * * * fire, wa\-|* ter, earth and|all, how I have|liv'd a vas- sal,|
 _E,4 B,,4 C,4 F,4 | B,,2 C,2 D,4 C,8 | C,4 B,,2 C,2 D,2 E,2 F,4 | C,8 F,16 |] %22
w: liv'd a vas- sal|at the call, I|have liv'd a vas- sal at|thy call.|

